icons/mobile/24/svg/logo-firefox-24.svg

<svg width="24" height="24" viewBox="0 0 24 24" fill="none" xmlns="http://www.w3.org/2000/svg">
<path d="M14.9887 2.50737C15.0697 2.52636 15.1392 2.57888 15.1782 2.65385C15.3592 2.98885 15.6575 3.71026 16.2455 4.47026C16.5393 4.84997 17.996 6.42535 18.6088 7.14311C19.1337 7.75694 20.0728 9.32705 20.1323 9.66264C19.8984 8.32238 19.5451 7.61166 19.436 7.38237C19.406 7.32037 19.3694 7.23673 19.4604 7.15873C19.5274 7.10109 19.6332 7.14023 19.6801 7.18217C21.4879 8.82308 21.9163 11.1168 21.7953 13.6226C21.6733 16.1426 19.1457 22.4996 12.0287 22.4996C5.26922 22.4994 2.25283 16.9753 2.03265 14.0523C1.77265 10.6023 3.03111 7.29789 5.43011 5.81889C5.52205 5.76196 5.63491 5.76108 5.73285 5.81596C5.82973 5.87089 5.888 5.97371 5.88715 6.08256C5.87315 7.03756 5.97723 7.73316 6.17523 8.01616C6.24723 7.95716 6.38043 7.8227 6.50043 7.7017C6.90943 7.2917 7.52852 6.67114 8.12738 6.3892C8.22632 6.34229 8.34021 6.35078 8.42816 6.40971C8.51403 6.46763 8.56095 6.56467 8.55511 6.6685C8.49411 7.7055 8.53086 8.46213 8.64886 8.64213C9.03988 9.23213 10.4002 10.1338 11.2192 10.5738C11.6062 10.7818 11.8605 10.803 11.9135 10.856C11.9622 10.9059 11.9641 10.98 11.9194 11.0777C11.7914 11.3527 11.2709 12.0093 10.8989 12.0093H10.6284C9.83975 12.0403 7.72776 12.3222 7.53265 13.6529C7.45065 14.2149 7.76046 15.0364 8.33246 15.6734C9.28242 16.7281 10.6722 17.3102 12.103 17.2623C14.0968 17.1813 15.5987 15.8391 15.9438 14.0542C16.2937 12.2515 15.2066 10.7433 14.7075 10.313C14.6415 10.2561 14.5569 10.162 14.6098 9.97807C14.6828 9.72507 15.0432 9.78523 15.2582 9.84623C15.5003 9.91429 16.1684 10.1451 16.2817 10.315C14.6369 7.84042 12.3396 7.87076 11.7573 7.90776C11.6863 7.91276 11.5985 7.88748 11.5375 7.83549C11.4825 7.7865 11.4488 7.72 11.4438 7.64702C11.3918 6.86302 11.9426 5.48051 12.7006 4.50151C13.4506 3.53054 14.3854 2.81819 14.7504 2.5562C14.8213 2.50631 14.9058 2.48848 14.9887 2.50737Z" fill="black"/>
</svg>

<!-- This Source Code Form is subject to the terms of the Mozilla Public
   - License, v. 2.0. If a copy of the MPL was not distributed with this
   - file, You can obtain one at http://mozilla.org/MPL/2.0/. -->
<svg xmlns="http://www.w3.org/2000/svg" width="24" height="24" fill="none" viewBox="0 0 24 24">
    <path fill="#000" d="M14.989 2.507c.08.02.15.072.19.147.18.335.479 1.056 1.066 1.816.294.38 1.751 1.955 2.364 2.673.525.614 1.464 2.184 1.523 2.52-.234-1.34-.587-2.051-.696-2.28-.03-.063-.067-.146.024-.224.067-.058.173-.019.22.023 1.808 1.641 2.236 3.935 2.115 6.44-.122 2.52-2.65 8.878-9.766 8.878-6.76 0-9.776-5.525-9.996-8.448-.26-3.45.998-6.754 3.397-8.233a.304.304 0 0 1 .457.264c-.014.955.09 1.65.288 1.933a6 6 0 0 0 .325-.314c.41-.41 1.029-1.03 1.627-1.313a.3.3 0 0 1 .301.02.29.29 0 0 1 .127.26c-.06 1.037-.024 1.793.094 1.973.39.59 1.751 1.492 2.57 1.932.387.208.642.229.695.282q.072.075.005.222c-.128.275-.648.931-1.02.931h-.27c-.79.031-2.901.313-3.096 1.644-.082.562.227 1.383.8 2.02a4.87 4.87 0 0 0 3.77 1.59c1.994-.082 3.496-1.424 3.84-3.209.35-1.803-.736-3.31-1.235-3.741-.066-.057-.151-.151-.098-.335.073-.253.433-.193.648-.132.242.068.91.3 1.024.469-1.645-2.475-3.942-2.444-4.525-2.407a.32.32 0 0 1-.22-.073.28.28 0 0 1-.093-.188c-.052-.784.499-2.166 1.257-3.145.75-.971 1.684-1.684 2.05-1.946a.3.3 0 0 1 .238-.049" />
</svg>
